X:0
T:Dancing Feet
Z:Jack Campin <http://www.campin.me.uk/> version 1.0 September 2001
C:Geo. S. McLennan
S:G.S. McLennan, Highland Bagpipe Music book 1, 1929
B:NLS MH.s.234
R:Reel
M:C|
L:1/8
Q:1/2=96
K:Hp
{d}c/| {ag}a3 e/a/        ce{g}A>{d}c| {ag}a3        e/a/  ce{g}B>{d}c|\
       {ag}a3 e/a/        ce{g}A>{d}c|  {g}faef         {g}ce{g}B3/  :|
{d}c/|{gef}eA{gAGAG}A2 {d}ce{g}A>{d}c|{gef}eA {gAGAG}A2 {d}ce{g}B>{d}c|\
      {gef}eA{gAGAG}A2 {d}ce{g}A>{d}c|  {g}faef         {g}ce{g}B3/  :|
